small/extra/apps/standard/flickr.svg

<?xml version="1.0" encoding="UTF-8" standalone="no"?>
<!-- Created with Inkscape (http://www.inkscape.org/) -->
<svg id="svg2" xmlns:rdf="http://www.w3.org/1999/02/22-rdf-syntax-ns#" xmlns="http://www.w3.org/2000/svg" height="100%" width="100%" version="1.1" xmlns:cc="http://creativecommons.org/ns#" viewBox="0 0 512 512" xmlns:dc="http://purl.org/dc/elements/1.1/">
 <metadata id="metadata76">
  <rdf:RDF>
   <cc:Work rdf:about="">
    <dc:format>image/svg+xml</dc:format>
    <dc:type rdf:resource="http://purl.org/dc/dcmitype/StillImage"/>
   </cc:Work>
  </rdf:RDF>
 </metadata>
 <path id="path20" d="m26 0c-14.397 0-26 11.603-26 26v460c0 14.397 11.603 26 26 26h460c14.397 0 26-11.603 26-26v-460c0-14.397-11.6-26-26-26h-460" fill="#076ce6"/>
 <text id="text22" style="word-spacing:0;letter-spacing:0" font-size="129.23px" line-height="125%" y="94.639999" x="-419.17999" font-family="Gentium Book Basic">
  <tspan id="tspan24" y="94.639999" x="-419.17999"/>
 </text>
 <text id="text26" style="text-anchor:middle" transform="scale(4.0128 .2492)" font-size="46.954px" y="30.625999" x="92.620003" font-family="Arial"/>
 <text id="text28" style="word-spacing:0;letter-spacing:0" font-size="129.23px" line-height="125%" y="14.64" x="162.09" font-family="Gentium Book Basic">
  <tspan id="tspan30" y="14.64" x="162.09"/>
 </text>
 <text id="text32" style="text-anchor:middle" transform="scale(4.0128 .2492)" font-size="46.954px" y="-290.41" x="237.47" font-family="Arial"/>
 <text id="text34" style="word-spacing:0;letter-spacing:0" font-size="129.23px" line-height="125%" y="-166.62" x="-909.48999" font-family="Gentium Book Basic">
  <tspan id="tspan36" y="-166.62" x="-909.48999"/>
 </text>
 <text id="text38" style="text-anchor:middle" transform="scale(4.0128 .2492)" font-size="46.954px" y="-1017.76" x="-29.57" font-family="Arial"/>
 <text id="text40" style="word-spacing:0;letter-spacing:0" font-size="129.23px" line-height="125%" y="-383.09" x="188.56" font-family="Gentium Book Basic">
  <tspan id="tspan42" y="-383.09" x="188.56"/>
 </text>
 <text id="text44" style="text-anchor:middle" transform="scale(4.0128 .2492)" font-size="46.954px" y="-1886.4301" x="244.07001" font-family="Arial"/>
 <text id="text46" style="word-spacing:0;letter-spacing:0" font-size="129.23px" line-height="125%" y="-463.09" x="769.83002" font-family="Gentium Book Basic">
  <tspan id="tspan48" y="-463.09" x="769.83002"/>
 </text>
 <text id="text50" style="text-anchor:middle" transform="scale(4.0128 .2492)" font-size="46.954px" y="-2207.46" x="388.92001" font-family="Arial"/>
 <text id="text52" style="word-spacing:0;letter-spacing:0" font-size="129.23px" line-height="125%" y="-935.48999" x="380.70999" font-family="Gentium Book Basic">
  <tspan id="tspan54" y="-935.48999" x="380.70999"/>
 </text>
 <text id="text56" style="text-anchor:middle" transform="scale(4.0128 .2492)" font-size="46.954px" y="-4103.1099" x="291.95001" font-family="Arial"/>
 <text id="text58" style="word-spacing:0;letter-spacing:0" font-size="129.23px" line-height="125%" y="-1015.5" x="961.96997" font-family="Gentium Book Basic">
  <tspan id="tspan60" y="-1015.5" x="961.96997"/>
 </text>
 <text id="text62" style="text-anchor:middle" transform="scale(4.0128 .2492)" font-size="46.954px" y="-4424.1499" x="436.79999" font-family="Arial"/>
 <text id="text64" style="word-spacing:0;letter-spacing:0" font-size="208.33px" line-height="125%" y="399.22" x="-870.83002" font-family="Gentium Book Basic">
  <tspan id="tspan66" y="399.22" x="-870.83002"/>
 </text>
 <path id="path68" style="color:#000000" d="m255.5 0v512h230.5c14.397 0 26-11.603 26-26v-460c0-14.397-11.6-26-26-26h-230.5" fill="#ff1b91"/>
 <path id="path70" opacity=".25" d="m138.81 155.16c-62.35-0.11-112.71 66.68-94.44 126.72 11.579 42.37 51.18 66.68 78.84 98.06 44.09 43.952 88.07 88 132.06 132.06h230.72c14.397 0 26-11.603 26-26v-230.69c-25.849-25.74-51.731-51.44-77.69-77.06-47.746-42.3-131.62-23.1-155.87 36.13-6.326 17.225-6.266 37.756-21.906 13.875-31.13-28.828-58.09-69.51-104.44-72.5l-5.125-0.406-5.188-0.125c-0.996-0.036-1.979-0.061-2.969-0.063"/>
 <path id="path72" d="m141.78 155.22a100.78 100.78 0 1 0 0 201.56 100.78 100.78 0 0 0 0 -201.56m228.44 0a100.78 100.78 0 1 0 0 201.56 100.78 100.78 0 0 0 0 -201.56" fill="#fff"/>
</svg>

<?xml version="1.0" encoding="UTF-8" standalone="no"?>
<!-- Created with Inkscape (http://www.inkscape.org/) -->

<svg
   xmlns:dc="http://purl.org/dc/elements/1.1/"
   xmlns:cc="http://creativecommons.org/ns#"
   xmlns:rdf="http://www.w3.org/1999/02/22-rdf-syntax-ns#"
   xmlns:svg="http://www.w3.org/2000/svg"
   xmlns="http://www.w3.org/2000/svg"
   xmlns:inkscape="http://www.inkscape.org/namespaces/inkscape"
   version="1.1"
   width="100%"
   height="100%"
   viewBox="0 0 512 512"
   id="svg2">
  <metadata
     id="metadata76">
    <rdf:RDF>
      <cc:Work
         rdf:about="">
        <dc:format>image/svg+xml</dc:format>
        <dc:type
           rdf:resource="http://purl.org/dc/dcmitype/StillImage" />
      </cc:Work>
    </rdf:RDF>
  </metadata>
  <defs
     id="defs4" />
  <path
     d="M 26,0 C 11.603,0 0,11.603 0,26 v 460 c 0,14.397 11.603,26 26,26 h 460 c 14.397,0 26,-11.603 26,-26 V 26 C 512,11.603 500.397,0 486,0 H 26"
     inkscape:connector-curvature="0"
     id="path20"
     style="fill:#076ce6" />
  <text
     x="-419.17999"
     y="94.639999"
     id="text22"
     style="font-size:129.22999573px;line-height:125%;letter-spacing:0;word-spacing:0;font-family:Gentium Book Basic">
    <tspan
       x="-419.17999"
       y="94.639999"
       id="tspan24" />
  </text>
  <text
     x="92.620003"
     y="30.625999"
     transform="scale(4.0128,0.2492)"
     id="text26"
     style="font-size:46.95399857px;text-anchor:middle;font-family:Arial" />
  <text
     x="162.09"
     y="14.64"
     id="text28"
     style="font-size:129.22999573px;line-height:125%;letter-spacing:0;word-spacing:0;font-family:Gentium Book Basic">
    <tspan
       x="162.09"
       y="14.64"
       id="tspan30" />
  </text>
  <text
     x="237.47"
     y="-290.41"
     transform="scale(4.0128,0.2492)"
     id="text32"
     style="font-size:46.95399857px;text-anchor:middle;font-family:Arial" />
  <text
     x="-909.48999"
     y="-166.62"
     id="text34"
     style="font-size:129.22999573px;line-height:125%;letter-spacing:0;word-spacing:0;font-family:Gentium Book Basic">
    <tspan
       x="-909.48999"
       y="-166.62"
       id="tspan36" />
  </text>
  <text
     x="-29.57"
     y="-1017.76"
     transform="scale(4.0128,0.2492)"
     id="text38"
     style="font-size:46.95399857px;text-anchor:middle;font-family:Arial" />
  <text
     x="188.56"
     y="-383.09"
     id="text40"
     style="font-size:129.22999573px;line-height:125%;letter-spacing:0;word-spacing:0;font-family:Gentium Book Basic">
    <tspan
       x="188.56"
       y="-383.09"
       id="tspan42" />
  </text>
  <text
     x="244.07001"
     y="-1886.4301"
     transform="scale(4.0128,0.2492)"
     id="text44"
     style="font-size:46.95399857px;text-anchor:middle;font-family:Arial" />
  <text
     x="769.83002"
     y="-463.09"
     id="text46"
     style="font-size:129.22999573px;line-height:125%;letter-spacing:0;word-spacing:0;font-family:Gentium Book Basic">
    <tspan
       x="769.83002"
       y="-463.09"
       id="tspan48" />
  </text>
  <text
     x="388.92001"
     y="-2207.46"
     transform="scale(4.0128,0.2492)"
     id="text50"
     style="font-size:46.95399857px;text-anchor:middle;font-family:Arial" />
  <text
     x="380.70999"
     y="-935.48999"
     id="text52"
     style="font-size:129.22999573px;line-height:125%;letter-spacing:0;word-spacing:0;font-family:Gentium Book Basic">
    <tspan
       x="380.70999"
       y="-935.48999"
       id="tspan54" />
  </text>
  <text
     x="291.95001"
     y="-4103.1099"
     transform="scale(4.0128,0.2492)"
     id="text56"
     style="font-size:46.95399857px;text-anchor:middle;font-family:Arial" />
  <text
     x="961.96997"
     y="-1015.5"
     id="text58"
     style="font-size:129.22999573px;line-height:125%;letter-spacing:0;word-spacing:0;font-family:Gentium Book Basic">
    <tspan
       x="961.96997"
       y="-1015.5"
       id="tspan60" />
  </text>
  <text
     x="436.79999"
     y="-4424.1499"
     transform="scale(4.0128,0.2492)"
     id="text62"
     style="font-size:46.95399857px;text-anchor:middle;font-family:Arial" />
  <text
     x="-870.83002"
     y="399.22"
     id="text64"
     style="font-size:208.33000183px;line-height:125%;letter-spacing:0;word-spacing:0;font-family:Gentium Book Basic">
    <tspan
       x="-870.83002"
       y="399.22"
       id="tspan66" />
  </text>
  <path
     d="M 255.5,0 V 512 H 486 c 14.397,0 26,-11.603 26,-26 V 26 C 512,11.603 500.397,0 486,0 H 255.5"
     inkscape:connector-curvature="0"
     id="path68"
     style="color:#000000;fill:#ff1b91" />
  <path
     d="M 138.81,155.16 C 76.46,155.047 26.1,221.84 44.37,281.88 c 11.579,42.37 51.18,66.68 78.84,98.06 44.09,43.952 88.07,88 132.06,132.06 h 230.72 c 14.397,0 26,-11.603 26,-26 V 255.31 c -25.849,-25.74 -51.731,-51.44 -77.69,-77.06 -47.746,-42.3 -131.62,-23.1 -155.87,36.13 -6.326,17.225 -6.266,37.756 -21.906,13.875 -31.13,-28.828 -58.09,-69.51 -104.44,-72.5 l -5.125,-0.406 -5.188,-0.125 c -0.996,-0.036 -1.979,-0.061 -2.969,-0.063"
     inkscape:connector-curvature="0"
     id="path70"
     style="opacity:0.25" />
  <path
     d="m 141.7805,155.21951 a 100.78049,100.78049 0 1 0 0,201.56098 100.78049,100.78049 0 0 0 0,-201.56098 m 228.43901,0 a 100.78049,100.78049 0 1 0 0,201.56098 100.78049,100.78049 0 0 0 0,-201.56098"
     inkscape:connector-curvature="0"
     id="path72"
     style="fill:#ffffff" />
</svg>
